X:23
T:Alleluia, lumire des nations
C:J. Berthier
M:4/4
K:Cm
P:Refrain
"Dom"CC (CD)|E3 E "Sib"FF EF|"Mib"G4 "Lab"cc ("Sib"BA)|"Mib"G2 FE "Fam"F4|"Sol"G4 "Dom"CC (CD)|
"Dom"E3 E "Sib"FF EF|"Mib"G4 "Lab"cc ("Sib"BA)|"Mib"G2 "Fam"FE "Sol"D4|"Dom"C6 z2||
P:Versets
AAGA B2 FF|G4 G2 GG|[F2c2] [Fc][Fc] F2 EF|G6z2||
